apps/common/main/resources/img/toolbar/2.5x/big/btn-pen-tool.svg

<svg width="28" height="28" viewBox="0 0 28 28" fill="none" xmlns="http://www.w3.org/2000/svg">
<path fill-rule="evenodd" clip-rule="evenodd" d="M16.0869 3.05016C16.039 3.02254 15.9779 3.03893 15.9503 3.08676L11.5009 10.7933C11.5007 10.7932 11.5006 10.7931 11.5006 10.7931L11.5003 10.7944L9.27531 18.5723C9.25022 18.66 9.28762 18.7536 9.36653 18.7993L9.43513 18.839L13.3596 21.1048L13.4283 21.1444C13.5074 21.1899 13.6071 21.1755 13.6705 21.1099L19.294 15.2945C19.294 15.2945 19.273 15.2822 19.2399 15.2629L19.2945 15.2944L23.7445 7.58676C23.7721 7.53893 23.7557 7.47777 23.7079 7.45016L23.0151 7.05016C22.9672 7.02254 22.9061 7.03893 22.8785 7.08676L18.9285 13.9284L12.8663 10.4284L16.8163 3.58676C16.8439 3.53893 16.8275 3.47777 16.7797 3.45016L16.0869 3.05016ZM18.4281 14.7941L12.3661 11.2943L10.4085 18.2463L13.3862 19.9655L18.4281 14.7941ZM9.66531 18.9728C9.66531 18.9728 8.53134 22.9369 9.39736 23.4369C10.2634 23.9369 13.1294 20.9728 13.1294 20.9728L9.66531 18.9728Z" fill="black"/>
</svg>

<svg width="28" height="28" fill="none" xmlns="http://www.w3.org/2000/svg"><path d="M16.087 3.05a.1.1 0 0 0-.137.037l-4.45 7.708-2.225 7.778a.199.199 0 0 0 .091.227l.07.04 3.924 2.265.068.04a.2.2 0 0 0 .242-.035l5.624-5.815-.054-.032.054.032 4.45-7.708a.1.1 0 0 0-.036-.136l-.693-.4a.1.1 0 0 0-.137.036l-3.95 6.842-6.062-3.5 3.95-6.842a.1.1 0 0 0-.036-.136l-.693-.4Zm2.341 11.744-5.042 5.172-2.978-1.72 1.958-6.951 6.062 3.5Zm-8.763 4.179s-1.134 3.964-.268 4.464c.866.5 3.732-2.464 3.732-2.464l-3.464-2Z" fill="#000"/></svg>
